!!!!SEGMENT: pl-sa--135-a-iii-35--002_marescalchi-luigi--sinfonia-ex-d-andante.krn
!!!cenid: 17xx:579
!!!COM: Marescalchi, Luigi
!!!COM-rismID: pe30002079
!!!CDT: 1745-1812
!!!CNT: Italian
!!!OPR: Sinfonia ex D
!!!OTL: Andante
!!!OMV: 002
!!!PDT:
!!!AGN: Secular
!!!SMS-siglum: PL-SA
!!!SMS-shelfmark: 135/A III 35
!!!SMS-shelfwork: 001-002 M
!!!SMS-variant:
!!!SMS-altvar:
!!!NIFC-rismSourceID: 1001035052
!!!NIFC-rismChildID: 1001035052
!!!NIFC-islandoraID:
!!!URL-pdf-islandora:
!!!URL-scan: https://bc.bdsandomierz.pl/dlibra/publication/1492/edition/1460/content @EN{Scan in the Sandomierz Diocese Digital Library} @PL{Skany w portalu Cyfrowa Biblioteka Diecezjalna w Sandomierzu}
!!!ONB-nifc: UWAGA: części Sinfonii: Allegro assai, Andante, Presto
!!!AIN: 1 bass 2 cor 2 oboe 1 viola 2 violn
!!!key:
**kern	**dynam	**kern	**dynam	**kern	**dynam	**kern	**kern	**kern	**kern	**kern
*part8	*part8	*part7	*part7	*part6	*part6	*part5	*part4	*part3	*part2	*part1
*staff8	*	*staff7	*	*staff6	*	*staff5	*staff4	*staff3	*staff2	*staff1
*Ibass	*	*Iviola	*	*Ivioln	*	*Ivioln	*Icor	*Icor	*Ioboe	*Ioboe
*I"Sinfonia Basso	*	*I"Viola obbligatto	*	*I"Violino Secundo	*	*I"Violino Primo	*I"Corno Secondo	*I"Corno Primo	*I"Oboe Secundo Obligato	*I"Oboe Primo Obligato
*I'B.	*	*I'V-la	*	*I'V-no II	*	*I'V-no I	*I'C. II	*I'C. I	*I'Ob. II	*I'Ob. I
*clefF4	*	*clefC3	*	*clefG2	*	*clefG2	*clefG2	*clefG2	*clefG2	*clefG2
*ITrd0c0	*	*	*	*	*	*	*ITrd5c9	*ITrd5c9	*	*
*k[b-]	*	*k[b-]	*	*k[b-]	*	*k[b-]	*k[b-]	*k[b-]	*k[b-]	*k[b-]
*d:	*	*d:	*	*d:	*	*d:	*d:	*d:	*d:	*d:
*M3/8	*	*M3/8	*	*M3/8	*	*M3/4	*M3/8	*M3/8	*M3/8	*M3/8
=1	=1	=1	=1	=1	=1	=1	=1	=1	=1	=1
!	!	!	!	!	!	!LO:SIC:t:o=:v:kłopoty z pionem w 51 takcie	!	!	!	!
!	!	!LO:SIC:o=:v:kłopoty z pionem w 51 takcie	!	!	!	!LO:SIC:o=:v:metrum 3/4	!	!	!	!
!LO:TX:a:t=Andante	!	!LO:TX:a:t=Andante	!LO:DY:a	!	!LO:DY:a:t=p&colon;	!LO:TX:a:t=Andante	!LO:TX:a:t=Andante Tacet	!LO:TX:a:t=Andante Tacet	!LO:TX:a:t=Andante Tacet	!LO:TX:a:t=Andante Tacet
!LO:N:vis=00	!	!	!	!	!	!	!	!	!	!
1.r	.	16d'\LL	.	16d'/LL	p	(16aa\LL	4.ryy	4.ryy	4.ryy	4.ryy
.	.	16f'\	.	16f'/	.	16ff\	.	.	.	.
.	.	16a'\	.	16a'/	.	16ee\	.	.	.	.
.	.	16f'\	.	16f'/	.	16dd\JJ)	.	.	.	.
.	.	16g'\	.	16g'/	.	16.bb-\LL	.	.	.	.
.	.	16b-'\JJ	.	16b-'/JJ	.	.	.	.	.	.
.	.	.	.	.	.	32gg\JJk	.	.	.	.
=2	=2	=2	=2	=2	=2	=2	=2	=2	=2	=2
.	.	16d'\LL	.	16d'/LL	.	(16aa\LL	4.ryy	4.ryy	4.ryy	4.ryy
.	.	16f'\	.	16f'/	.	16ff\	.	.	.	.
.	.	16a'\	.	16a'/	.	16ee\	.	.	.	.
.	.	16f'\	.	16f'/	.	16dd\JJ)	.	.	.	.
.	.	16g'\	.	16g'/	.	(16.bb-\LL	.	.	.	.
.	.	16b-'\JJ	.	16b-'/JJ	.	.	.	.	.	.
.	.	.	.	.	.	32gg\JJk)	.	.	.	.
=3	=3	=3	=3	=3	=3	=3	=3	=3	=3	=3
.	.	16d'\LL	.	16d'/LL	.	(16aa\LL	4.ryy	4.ryy	4.ryy	4.ryy
.	.	16f'\	.	16f'/	.	16aa\	.	.	.	.
.	.	16e'\	.	16e'/	.	16gg\	.	.	.	.
.	.	16d'\	.	16d'/	.	16ff\JJ)	.	.	.	.
.	.	16g'\	.	16g'/	.	(16.ee\LL	.	.	.	.
.	.	16g#X'\JJ	.	16g#X'/JJ	.	.	.	.	.	.
.	.	.	.	.	.	32dd\JJk)	.	.	.	.
=4	=4	=4	=4	=4	=4	=4	=4	=4	=4	=4
.	.	16a'\LL	.	16a/LL	.	(64cc#X\LLLL	4.ryy	4.ryy	4.ryy	4.ryy
.	.	.	.	.	.	64dd\JJ	.	.	.	.
.	.	.	.	.	.	16.ee\JJ)	.	.	.	.
.	.	16a'\	.	16a/	.	.	.	.	.	.
.	.	16e'\	.	16e/	.	8a/	.	.	.	.
.	.	16c#X'\JJ	.	16c#X/JJ	.	.	.	.	.	.
!	!	!LO:SIC:o=:v:przekreślona pauza 8	!	!LO:SIC:o=:v:jest jeszcze pauza 8	!	!	!	!	!	!
.	.	8A/	.	8A/	.	8r	.	.	.	.
!	!	!LO:LB:g=original	!	!	!	!	!	!	!	!
=5	=5	=5	=5	=5	=5	=5	=5	=5	=5	=5
!LO:N:vis=00	!	!	!	!	!	!	!	!	!	!
1.r	.	16f'\LL	.	16f'/LL	.	(16cccn\LL	4.ryy	4.ryy	4.ryy	4.ryy
.	.	16a'\	.	16a'/	.	16aa\	.	.	.	.
.	.	16cc'\	.	16cc'/	.	16gg\	.	.	.	.
.	.	16a'\	.	16a'/	.	16ff\JJ)	.	.	.	.
.	.	16b-'\	.	16b-'/	.	16.ddd\LL	.	.	.	.
.	.	16dd'\JJ	.	16dd'/JJ	.	.	.	.	.	.
.	.	.	.	.	.	32bb-\JJk	.	.	.	.
=6	=6	=6	=6	=6	=6	=6	=6	=6	=6	=6
.	.	16f'\LL	.	16f'/LL	.	(16ccc\LL	4.ryy	4.ryy	4.ryy	4.ryy
.	.	16a'\	.	16a'/	.	16aa\	.	.	.	.
.	.	16cc'\	.	16cc'/	.	16gg\	.	.	.	.
.	.	16a'\	.	16a'/	.	16ff\JJ)	.	.	.	.
.	.	16b-'\	.	16b-'/	.	(16.ddd\LL	.	.	.	.
.	.	16dd'\JJ	.	16dd'/JJ	.	.	.	.	.	.
.	.	.	.	.	.	32bb-\JJk)	.	.	.	.
=7	=7	=7	=7	=7	=7	=7	=7	=7	=7	=7
.	.	16f'\LL	.	16f'/LL	.	(16ccc\LL	4.ryy	4.ryy	4.ryy	4.ryy
.	.	16a'\	.	16a'/	.	16ccc\	.	.	.	.
.	.	16g'\	.	16g'/	.	16bb-\	.	.	.	.
.	.	16f'\	.	16f'/JJ	.	16aa\JJ)	.	.	.	.
.	.	16b-'\	.	16b-'\LL	.	16.gg\LL	.	.	.	.
.	.	16bn'\JJ	.	16bn'\JJ	.	.	.	.	.	.
.	.	.	.	.	.	32ff\JJk	.	.	.	.
=8	=8	=8	=8	=8	=8	=8	=8	=8	=8	=8
.	.	16cc'\LL	.	16cc'\LL	.	64eeu\LLLL	4.ryy	4.ryy	4.ryy	4.ryy
.	.	.	.	.	.	64dd\JJ	.	.	.	.
.	.	.	.	.	.	16.cc\JJ	.	.	.	.
.	.	16cc'\	.	16cc'\	.	.	.	.	.	.
.	.	16g'\	.	16g'\	.	8cc\	.	.	.	.
.	.	16e'\JJ	.	16e'\JJ	.	.	.	.	.	.
!	!	!	!	!LO:N:vis=8	!	!	!	!	!	!
.	.	8c\	.	16c/	.	8r	.	.	.	.
!	!	!	!	!LO:N:vis=8	!	!	!	!	!	!
.	.	.	.	16r	.	.	.	.	.	.
!	!	!	!	!LO:LB:g=original	!	!	!	!	!	!
=9	=9	=9	=9	=9	=9	=9	=9	=9	=9	=9
.	.	.	.	.	.	(>8qqccc/	.	.	.	.
*	*	*^	*	*	*	*	*	*	*	*
8C/	.	4.g/	4.e\	.	32e/LLL	.	32bb-\LLL	4.ryy	4.ryy	4.ryy	4.ryy
.	.	.	.	.	32cc/	.	32aa\	.	.	.	.
.	.	.	.	.	32g/	.	32bb-\	.	.	.	.
.	.	.	.	.	32cc/JJJ	.	32ccc\JJJ)	.	.	.	.
8r	.	.	.	.	32e/LLL	.	(16bb-\LL	.	.	.	.
.	.	.	.	.	32cc/	.	.	.	.	.	.
.	.	.	.	.	32g/	.	16gg\	.	.	.	.
.	.	.	.	.	32cc/JJJ	.	.	.	.	.	.
8C/	.	.	.	.	32e/LLL	.	16ee\	.	.	.	.
.	.	.	.	.	32cc/	.	.	.	.	.	.
.	.	.	.	.	32g/	.	16cc\JJ)	.	.	.	.
.	.	.	.	.	32cc/JJJ	.	.	.	.	.	.
=10	=10	=10	=10	=10	=10	=10	=10	=10	=10	=10	=10
8F\	.	4.a/	4.f\	.	32f/LLL	.	8.ccc\L	4.ryy	4.ryy	4.ryy	4.ryy
.	.	.	.	.	32cc/	.	.	.	.	.	.
.	.	.	.	.	32a/	.	.	.	.	.	.
.	.	.	.	.	32cc/JJJ	.	.	.	.	.	.
8r	.	.	.	.	32f/LLL	.	.	.	.	.	.
.	.	.	.	.	32cc/	.	.	.	.	.	.
.	.	.	.	.	32a/	.	16aa\K	.	.	.	.
.	.	.	.	.	32cc/JJJ	.	.	.	.	.	.
8F\	.	.	.	.	32f/LLL	.	8ff\J	.	.	.	.
.	.	.	.	.	32cc/	.	.	.	.	.	.
.	.	.	.	.	32a/	.	.	.	.	.	.
.	.	.	.	.	32cc/JJJ	.	.	.	.	.	.
=11	=11	=11	=11	=11	=11	=11	=11	=11	=11	=11	=11
8C/	.	4.b-/	4.g\	.	32g/LLL	.	(32ee\LLL	4.ryy	4.ryy	4.ryy	4.ryy
.	.	.	.	.	32cc/	.	32ff\	.	.	.	.
.	.	.	.	.	32b-/	.	32gg\	.	.	.	.
.	.	.	.	.	32cc/JJJ	.	32aa\JJJ)	.	.	.	.
8r	.	.	.	.	32g/LLL	.	(16bb-\LL	.	.	.	.
.	.	.	.	.	32cc/	.	.	.	.	.	.
.	.	.	.	.	32b-/	.	16gg\	.	.	.	.
.	.	.	.	.	32cc/JJJ	.	.	.	.	.	.
8C/	.	.	.	.	32g/LLL	.	16ee\	.	.	.	.
.	.	.	.	.	32cc/	.	.	.	.	.	.
.	.	.	.	.	32b-/	.	16cc\JJ)	.	.	.	.
.	.	.	.	.	32cc/JJJ	.	.	.	.	.	.
!	!	!	!	!	!	!	!LO:LB:g=original	!	!	!	!
=12	=12	=12	=12	=12	=12	=12	=12	=12	=12	=12	=12
8F\	.	4.a/	4.f\	.	32f/LLL	.	(32ffu\LLL	4.ryy	4.ryy	4.ryy	4.ryy
.	.	.	.	.	32cc/	.	32ee\	.	.	.	.
.	.	.	.	.	32a/	.	32ff\	.	.	.	.
.	.	.	.	.	32cc/JJJ	.	32gg\JJJ)	.	.	.	.
8r	.	.	.	.	32f/LLL	.	8ff\	.	.	.	.
.	.	.	.	.	32cc/	.	.	.	.	.	.
.	.	.	.	.	32a/	.	.	.	.	.	.
.	.	.	.	.	32cc/JJJ	.	.	.	.	.	.
8FF/	.	.	.	.	32f/LLL	.	8r	.	.	.	.
.	.	.	.	.	32cc/	.	.	.	.	.	.
.	.	.	.	.	32a/	.	.	.	.	.	.
.	.	.	.	.	32cc/JJJ	.	.	.	.	.	.
=13	=13	=13	=13	=13	=13	=13	=13	=13	=13	=13	=13
.	.	.	.	.	.	.	(>8qqccc/	.	.	.	.
8C/	.	4.g/	4.e\	.	32e/LLL	.	32bb-\LLL	4.ryy	4.ryy	4.ryy	4.ryy
.	.	.	.	.	32cc/	.	32aa\	.	.	.	.
.	.	.	.	.	32g/	.	32bb-\	.	.	.	.
.	.	.	.	.	32cc/JJJ	.	32ccc\JJJ)	.	.	.	.
8r	.	.	.	.	32e/LLL	.	(16bb-\LL	.	.	.	.
.	.	.	.	.	32cc/	.	.	.	.	.	.
.	.	.	.	.	32g/	.	16gg\	.	.	.	.
.	.	.	.	.	32cc/JJJ	.	.	.	.	.	.
8C/	.	.	.	.	32e/LLL	.	16ee\	.	.	.	.
.	.	.	.	.	32cc/	.	.	.	.	.	.
.	.	.	.	.	32g/	.	16cc\JJ)	.	.	.	.
.	.	.	.	.	32cc/JJJ	.	.	.	.	.	.
=14	=14	=14	=14	=14	=14	=14	=14	=14	=14	=14	=14
8F\	.	4.a/	4.f\	.	32f/LLL	.	(>8.ccc\L	4.ryy	4.ryy	4.ryy	4.ryy
.	.	.	.	.	32cc/	.	.	.	.	.	.
.	.	.	.	.	32a/	.	.	.	.	.	.
.	.	.	.	.	32cc/JJJ	.	.	.	.	.	.
8r	.	.	.	.	32f/LLL	.	.	.	.	.	.
.	.	.	.	.	32cc/	.	.	.	.	.	.
.	.	.	.	.	32a/	.	16aa\K	.	.	.	.
.	.	.	.	.	32cc/JJJ	.	.	.	.	.	.
8F\	.	.	.	.	32f/LLL	.	8ff\J)	.	.	.	.
.	.	.	.	.	32cc/	.	.	.	.	.	.
.	.	.	.	.	32a/	.	.	.	.	.	.
.	.	.	.	.	32cc/JJJ	.	.	.	.	.	.
=15	=15	=15	=15	=15	=15	=15	=15	=15	=15	=15	=15
8C/	.	4.b-/	4.g\	.	32g/LLL	.	(32ee\LLL	4.ryy	4.ryy	4.ryy	4.ryy
.	.	.	.	.	32cc/	.	32ff\	.	.	.	.
.	.	.	.	.	32b-/	.	32gg\	.	.	.	.
.	.	.	.	.	32cc/JJJ	.	32aa\JJJ)	.	.	.	.
!	!	!	!	!	!LO:LB:g=original	!	!	!	!	!	!
8r	.	.	.	.	32g/LLL	.	(16bb-\LL	.	.	.	.
.	.	.	.	.	32cc/	.	.	.	.	.	.
.	.	.	.	.	32b-/	.	16gg\	.	.	.	.
.	.	.	.	.	32cc/JJJ	.	.	.	.	.	.
8C/	.	.	.	.	32g/LLL	.	16ee\	.	.	.	.
.	.	.	.	.	32cc/	.	.	.	.	.	.
.	.	.	.	.	32b-/	.	16cc\JJ)	.	.	.	.
.	.	.	.	.	32cc/JJJ	.	.	.	.	.	.
=16	=16	=16	=16	=16	=16	=16	=16	=16	=16	=16	=16
8FF/	.	8a/	8f\	.	(16f/LL	.	(16ff\LL	4.ryy	4.ryy	4.ryy	4.ryy
.	.	.	.	.	16e/	.	16ee\	.	.	.	.
8r	.	8r	4ryy	.	16f/	.	16ff\	.	.	.	.
.	.	.	.	.	16g/	.	16gg\	.	.	.	.
16r	.	16r	.	.	16a/	.	16aa\	.	.	.	.
(16A\	.	16A/	.	.	16c#X/JJ)	.	16cc#X\JJ)	.	.	.	.
*	*	*v	*v	*	*	*	*	*	*	*	*
=17	=17	=17	=17	=17	=17	=17	=17	=17	=17	=17
8B-\)	.	8B-/	.	(16d/LL	.	(16dd\LL	4.ryy	4.ryy	4.ryy	4.ryy
.	.	.	.	16c#X/	.	16cc#X\	.	.	.	.
8r	.	8r	.	16d/	.	16dd\	.	.	.	.
.	.	.	.	16e/	.	16ee\	.	.	.	.
(>8A\	.	16r	.	16f/	.	16ff\	.	.	.	.
.	.	16A/	.	16f#X/JJ)	.	16ff#X\JJ)	.	.	.	.
=18	=18	=18	=18	=18	=18	=18	=18	=18	=18	=18
8G\)	.	8G/	.	(16g/LL	.	(16gg\LL	4.ryy	4.ryy	4.ryy	4.ryy
.	.	.	.	16f#X/	.	16ff\	.	.	.	.
8r	.	8r	.	16g/	.	16gg\	.	.	.	.
.	.	.	.	16a/JJ)	.	16aa\JJ)	.	.	.	.
!	!	!	!	!LO:SIC:o=:v:rytm 8 i 2x16	!	!	!	!	!	!
.	.	.	.	(8qqcc/	.	8qqaa/	.	.	.	.
8C/	.	8C/	.	16b-/LL	.	16bb-\LL	.	.	.	.
.	.	.	.	32a/L	.	32aa\L	.	.	.	.
.	.	.	.	32g/JJJ)	.	32gg\JJJ	.	.	.	.
!	!	!LO:LB:g=original	!	!	!	!	!	!	!	!
=19	=19	=19	=19	=19	=19	=19	=19	=19	=19	=19
*	*	*^	*	*	*	*	*	*	*	*
!LO:TX:t=P:problem=mixed beam	!	!LO:TX:t=P:problem=mixed beam	!	!	!	!	!	!	!	!	!
8F\L	.	8ryy	8F/L	.	(64a/LLLL	.	(64aa\LLLL	4.ryy	4.ryy	4.ryy	4.ryy
.	.	.	.	.	64b-/JJ	.	64bb-\JJ	.	.	.	.
.	.	.	.	.	16.cc/JJ)	.	16.ccc\JJ)	.	.	.	.
8c\	.	8a/L	8f\	.	(16a/LL	.	(16aa\LL	.	.	.	.
.	.	.	.	.	16f/)	.	16ff\	.	.	.	.
8C/J	.	8g/J	8e\J	.	(16g/	.	16gg\	.	.	.	.
.	.	.	.	.	16e/JJ)	.	16ee\JJ)	.	.	.	.
*	*	*v	*v	*	*	*	*	*	*	*	*
=20	=20	=20	=20	=20	=20	=20	=20	=20	=20	=20
!	!LO:DY:a	!LO:TX:t=P:problem=mixed beam	!LO:DY:a	!	!LO:DY:a:t=f&colon;	!	!	!	!	!
16F\LL	f	16f\LL	f	(16f/LL	f	(16ff\LL	4.ryy	4.ryy	4.ryy	4.ryy
16F\	.	16F/	.	16e/	.	16ee\	.	.	.	.
16F\	.	16F/	.	16f/	.	16ff\	.	.	.	.
16F\	.	16F/	.	16g/	.	16gg\	.	.	.	.
16F\	.	16F/	.	16a/	.	16aa\	.	.	.	.
16A\JJ	.	16A/JJ	.	16c#X/JJ)	.	16cc#X\JJ)	.	.	.	.
!	!	!	!	!	!	!LO:LB:g=original	!	!	!	!
=21	=21	=21	=21	=21	=21	=21	=21	=21	=21	=21
16B-\LL	.	16B-/LL	.	(16d/LL	.	(16dd\LL	4.ryy	4.ryy	4.ryy	4.ryy
16B-\	.	16B-/	.	16c#X/	.	16cc#X\	.	.	.	.
16B-\	.	16B-/	.	16d/	.	16dd\	.	.	.	.
16B-\	.	16B-/	.	16e/	.	16ee\	.	.	.	.
16B-\	.	16B-/	.	16f/	.	16ff\	.	.	.	.
16A\JJ	.	16A/JJ	.	16f#X/JJ)	.	16ff#X\JJ)	.	.	.	.
!LO:LB:g=original	!	!	!	!	!	!	!	!	!	!
=22	=22	=22	=22	=22	=22	=22	=22	=22	=22	=22
16G\LL	.	16G/LL	.	(16g/LL	.	(16gg\LL	4.ryy	4.ryy	4.ryy	4.ryy
16G\	.	16G/	.	16f#X/	.	16ff#X\	.	.	.	.
16E\	.	16E/	.	16g/	.	16gg\	.	.	.	.
16E\	.	16E/	.	16a/JJ)	.	16aa\JJ)	.	.	.	.
.	.	.	.	(8qqcc/	.	8qqaa/	.	.	.	.
16C\	.	16C/	.	16b-/LL	.	16bb-\LL	.	.	.	.
16C\JJ	.	16C/JJ	.	32a/L	.	32aa\L	.	.	.	.
.	.	.	.	32g/JJJ)	.	32gg\JJJ	.	.	.	.
=23	=23	=23	=23	=23	=23	=23	=23	=23	=23	=23
!LO:TX:t=P:problem=mixed beam	!	!LO:TX:t=P:problem=mixed beam	!	!	!	!	!	!	!	!
16F\LL	.	16F/LL	.	(64a/LLLL	.	(64aa\LLLL	4.ryy	4.ryy	4.ryy	4.ryy
.	.	.	.	64b-/JJ	.	64bb-\JJ	.	.	.	.
.	.	.	.	16.cc/JJ)	.	16.ccc\JJ)	.	.	.	.
16F\	.	16f\JJ	.	.	.	.	.	.	.	.
*	*	*^	*	*	*	*	*	*	*	*
16c\	.	16a/LL	16f\LL	.	(16a/LL	.	16aa\LL	.	.	.	.
16c\	.	16a/	16f\	.	16f/)	.	16ff\	.	.	.	.
16C/	.	16g/	16e\	.	(16g/	.	16gg\	.	.	.	.
16C/JJ	.	16g/JJ	16e\JJ	.	16e/JJ)	.	16ee\JJ	.	.	.	.
*	*	*v	*v	*	*	*	*	*	*	*	*
=24	=24	=24	=24	=24	=24	=24	=24	=24	=24	=24
!LO:TX:t=P:problem=mixed beam	!	!LO:TX:t=P:problem=mixed beam	!	!	!	!LO:TX:t=P:problem=mixed beam	!	!	!	!
!	!	!	!	!LO:N:vis=4	!	!	!	!	!	!
8F\L	.	8f\L	.	8f/	.	8ff\L	4.ryy	4.ryy	4.ryy	4.ryy
!	!	!	!	!LO:N:vis=4	!	!	!	!	!	!
8FF/J	.	8F/J	.	8A/ 8f/	.	8A/J 8f/	.	.	.	.
8r	.	8r	.	8r	.	8r	.	.	.	.
!	!	!	!	!LO:PB:g=original	!	!	!	!	!	!
=25	=25	=25	=25	=25	=25	=25	=25	=25	=25	=25
!LO:N:vis=00	!	!	!LO:DY:a	!	!LO:DY:a:t=p&colon;	!	!	!	!	!
1.r	.	16d\LL	p	16d'/LL	p	(16aa\LL	4.ryy	4.ryy	4.ryy	4.ryy
.	.	16f\	.	16f'/	.	16ff\	.	.	.	.
.	.	16a\	.	16a'/	.	16ee\	.	.	.	.
.	.	16f\	.	16f'/	.	16dd\JJ)	.	.	.	.
.	.	16g\	.	16g'/	.	16.bb-\LL	.	.	.	.
.	.	16b-\JJ	.	16b-'/JJ	.	.	.	.	.	.
.	.	.	.	.	.	32gg\JJk	.	.	.	.
=26	=26	=26	=26	=26	=26	=26	=26	=26	=26	=26
.	.	16d\LL	.	16d'/LL	.	(16aa\LL	4.ryy	4.ryy	4.ryy	4.ryy
.	.	16f\	.	16f'/	.	16ff\	.	.	.	.
.	.	16a\	.	16a'/	.	16ee\	.	.	.	.
.	.	16f\	.	16f'/	.	16dd\JJ)	.	.	.	.
.	.	16g\	.	16g'/	.	16.bb-\LL	.	.	.	.
.	.	16b-\JJ	.	16b-'/JJ	.	.	.	.	.	.
.	.	.	.	.	.	32gg\JJk	.	.	.	.
=27	=27	=27	=27	=27	=27	=27	=27	=27	=27	=27
.	.	16d'\LL	.	16d'/LL	.	(16aa\LL	4.ryy	4.ryy	4.ryy	4.ryy
.	.	16f'\	.	16f'/	.	16aa\	.	.	.	.
.	.	16e'\	.	16e'/	.	16gg\	.	.	.	.
.	.	16d'\	.	16d'/	.	16ff\JJ)	.	.	.	.
.	.	16g'\	.	16g'/	.	16.ee\LL	.	.	.	.
.	.	16g#X'\JJ	.	16g#X'/JJ	.	.	.	.	.	.
.	.	.	.	.	.	32dd\JJk	.	.	.	.
=28	=28	=28	=28	=28	=28	=28	=28	=28	=28	=28
.	.	16a'\LL	.	16a'/LL	.	(64cc#X\LLLL	4.ryy	4.ryy	4.ryy	4.ryy
.	.	.	.	.	.	64dd\JJ	.	.	.	.
.	.	.	.	.	.	16.ee\JJ)	.	.	.	.
.	.	16a'\	.	16a'/	.	.	.	.	.	.
.	.	16e'\	.	16e'/	.	8a/	.	.	.	.
.	.	16c#X'\JJ	.	16c#X'/JJ	.	.	.	.	.	.
!	!	!	!	!LO:N:vis=8	!	!	!	!	!	!
.	.	8A/	.	16A/	.	8r	.	.	.	.
!	!	!	!	!LO:N:vis=8	!	!	!	!	!	!
.	.	.	.	16r	.	.	.	.	.	.
=29	=29	=29	=29	=29	=29	=29	=29	=29	=29	=29
.	.	.	.	.	.	(>8qqaa/	.	.	.	.
*	*	*^	*	*	*	*	*	*	*	*
8AA/	.	4.e/	4.c#X\	.	32c#X/LLL	.	32gg\LLL	4.ryy	4.ryy	4.ryy	4.ryy
.	.	.	.	.	32a/	.	32ff\	.	.	.	.
.	.	.	.	.	32e/	.	32gg\	.	.	.	.
.	.	.	.	.	32a/JJJ	.	32aa\JJJ)	.	.	.	.
8r	.	.	.	.	32c#/LLL	.	(16gg\LL	.	.	.	.
.	.	.	.	.	32a/	.	.	.	.	.	.
.	.	.	.	.	32e/	.	16ee\	.	.	.	.
.	.	.	.	.	32a/JJJ	.	.	.	.	.	.
8AA/	.	.	.	.	32c#/LLL	.	16cc#X\	.	.	.	.
.	.	.	.	.	32a/	.	.	.	.	.	.
.	.	.	.	.	32e/	.	16a\JJ)	.	.	.	.
.	.	.	.	.	32a/JJJ	.	.	.	.	.	.
!	!	!	!LO:LB:g=original	!	!	!	!	!	!	!	!
=30	=30	=30	=30	=30	=30	=30	=30	=30	=30	=30	=30
8D\	.	4.f/	4.d\	.	32d/LLL	.	8.aa\L	4.ryy	4.ryy	4.ryy	4.ryy
.	.	.	.	.	32a/	.	.	.	.	.	.
.	.	.	.	.	32f/	.	.	.	.	.	.
.	.	.	.	.	32a/JJJ	.	.	.	.	.	.
8r	.	.	.	.	32d/LLL	.	.	.	.	.	.
.	.	.	.	.	32a/	.	.	.	.	.	.
.	.	.	.	.	32f/	.	16ff\K	.	.	.	.
.	.	.	.	.	32a/JJJ	.	.	.	.	.	.
8D\	.	.	.	.	32d/LLL	.	8dd\J	.	.	.	.
.	.	.	.	.	32a/	.	.	.	.	.	.
.	.	.	.	.	32f/	.	.	.	.	.	.
.	.	.	.	.	32a/JJJ	.	.	.	.	.	.
!	!	!	!	!	!	!	!LO:PB:g=original	!	!	!	!
=31	=31	=31	=31	=31	=31	=31	=31	=31	=31	=31	=31
8A\	.	4.g/	4.e\	.	32e/LLL	.	(32cc#X\LLL	4.ryy	4.ryy	4.ryy	4.ryy
.	.	.	.	.	32a/	.	32dd\	.	.	.	.
.	.	.	.	.	32g/	.	32ee\	.	.	.	.
.	.	.	.	.	32a/JJJ	.	32ff\JJJ)	.	.	.	.
8r	.	.	.	.	32e/LLL	.	(16gg\LL	.	.	.	.
.	.	.	.	.	32a/	.	.	.	.	.	.
.	.	.	.	.	32g/	.	16ee\	.	.	.	.
.	.	.	.	.	32a/JJJ	.	.	.	.	.	.
8AA/	.	.	.	.	32e/LLL	.	16cc#X\	.	.	.	.
.	.	.	.	.	32a/	.	.	.	.	.	.
.	.	.	.	.	32g/	.	16a\JJ)	.	.	.	.
.	.	.	.	.	32a/JJJ	.	.	.	.	.	.
=32	=32	=32	=32	=32	=32	=32	=32	=32	=32	=32	=32
.	.	.	.	.	.	.	(>8qqee/	.	.	.	.
8D\	.	4.f/	4.d\	.	32d/LLL	.	32dd\LLL	4.ryy	4.ryy	4.ryy	4.ryy
.	.	.	.	.	32a/	.	32cc\	.	.	.	.
.	.	.	.	.	32f/	.	32dd\	.	.	.	.
.	.	.	.	.	32a/JJJ	.	32ee\JJJ)	.	.	.	.
8r	.	.	.	.	32d/LLL	.	8dd\	.	.	.	.
.	.	.	.	.	32a/	.	.	.	.	.	.
.	.	.	.	.	32f/	.	.	.	.	.	.
.	.	.	.	.	32a/JJJ	.	.	.	.	.	.
8DD/	.	.	.	.	32d/LLL	.	8r	.	.	.	.
.	.	.	.	.	32a/	.	.	.	.	.	.
.	.	.	.	.	32f/	.	.	.	.	.	.
.	.	.	.	.	32a/JJJ	.	.	.	.	.	.
!	!	!	!	!	!LO:LB:g=original	!	!	!	!	!	!
=33	=33	=33	=33	=33	=33	=33	=33	=33	=33	=33	=33
.	.	.	.	.	.	.	(>8qqaa/	.	.	.	.
8AA/	.	4.e/	4.c#X\	.	32c#X/LLL	.	32gg\LLL	4.ryy	4.ryy	4.ryy	4.ryy
.	.	.	.	.	32a/	.	32ff#X\	.	.	.	.
.	.	.	.	.	32e/	.	32gg\	.	.	.	.
.	.	.	.	.	32a/JJJ	.	32aa\JJJ)	.	.	.	.
8r	.	.	.	.	32c#/LLL	.	(16gg\LL	.	.	.	.
.	.	.	.	.	32a/	.	.	.	.	.	.
.	.	.	.	.	32e/	.	16ee\	.	.	.	.
.	.	.	.	.	32a/JJJ	.	.	.	.	.	.
8AA/	.	.	.	.	32c#/LLL	.	16cc#X\	.	.	.	.
.	.	.	.	.	32a/	.	.	.	.	.	.
.	.	.	.	.	32e/	.	16a\JJ)	.	.	.	.
.	.	.	.	.	32a/JJJ	.	.	.	.	.	.
=34	=34	=34	=34	=34	=34	=34	=34	=34	=34	=34	=34
8D\	.	4.f/	4.d\	.	32d/LLL	.	8.aa\L	4.ryy	4.ryy	4.ryy	4.ryy
.	.	.	.	.	32a/	.	.	.	.	.	.
.	.	.	.	.	32f/	.	.	.	.	.	.
.	.	.	.	.	32a/JJJ	.	.	.	.	.	.
8r	.	.	.	.	32d/LLL	.	.	.	.	.	.
.	.	.	.	.	32a/	.	.	.	.	.	.
.	.	.	.	.	32f/	.	16ff\K	.	.	.	.
.	.	.	.	.	32a/JJJ	.	.	.	.	.	.
8D\	.	.	.	.	32d/LLL	.	8dd\J	.	.	.	.
.	.	.	.	.	32a/	.	.	.	.	.	.
.	.	.	.	.	32f/	.	.	.	.	.	.
.	.	.	.	.	32a/JJJ	.	.	.	.	.	.
=35	=35	=35	=35	=35	=35	=35	=35	=35	=35	=35	=35
8A\	.	4.g/	4.e\	.	32e/LLL	.	(32cc#X\LLL	4.ryy	4.ryy	4.ryy	4.ryy
.	.	.	.	.	32a/	.	32dd\	.	.	.	.
.	.	.	.	.	32g/	.	32ee\	.	.	.	.
.	.	.	.	.	32a/JJJ	.	32ff\JJJ)	.	.	.	.
8r	.	.	.	.	32e/LLL	.	(16gg\LL	.	.	.	.
.	.	.	.	.	32a/	.	.	.	.	.	.
.	.	.	.	.	32g/	.	16ee\	.	.	.	.
.	.	.	.	.	32a/JJJ	.	.	.	.	.	.
8AA/	.	.	.	.	32e/LLL	.	16dd\	.	.	.	.
.	.	.	.	.	32a/	.	.	.	.	.	.
.	.	.	.	.	32g/	.	16cc#\JJ)	.	.	.	.
.	.	.	.	.	32a/JJJ	.	.	.	.	.	.
=36	=36	=36	=36	=36	=36	=36	=36	=36	=36	=36	=36
8D\	.	8f/	8d\	.	(16d/LL	.	16dd\LL	4.ryy	4.ryy	4.ryy	4.ryy
.	.	.	.	.	16a/	.	16aa\	.	.	.	.
8r	.	8r	4ryy	.	16bn/	.	16bbn\	.	.	.	.
.	.	.	.	.	16cc#X/	.	16ccc#X\	.	.	.	.
(>8F#X\	.	[8d\	.	.	16dd/	.	16ddd\	.	.	.	.
.	.	.	.	.	16ccn/JJ)	.	16cccn\JJ	.	.	.	.
*	*	*v	*v	*	*	*	*	*	*	*	*
=37	=37	=37	=37	=37	=37	=37	=37	=37	=37	=37
8G\)	.	8d\]	.	(16b-X/LL	.	16bb-X\LL|	4.ryy	4.ryy	4.ryy	4.ryy
.	.	.	.	16b-/	.	16bb-\	.	.	.	.
8r	.	8r	.	16a/	.	(16aa\	.	.	.	.
.	.	.	.	16g/	.	16gg\	.	.	.	.
(>8A\	.	[8d\	.	16f#X/	.	16ff#X\	.	.	.	.
.	.	.	.	16a/JJ)	.	16aa\JJ)	.	.	.	.
=38	=38	=38	=38	=38	=38	=38	=38	=38	=38	=38
8B-\)	.	8d\]	.	(16g/LL	.	(16gg\LL|	4.ryy	4.ryy	4.ryy	4.ryy
.	.	.	.	16g/	.	16gg\	.	.	.	.
8r	.	8r	.	16a/	.	16aa\	.	.	.	.
.	.	.	.	16b-/JJ)	.	16bb-\JJ)	.	.	.	.
.	.	.	.	(8qqcc/	.	(>8qqccc/	.	.	.	.
8G\	.	8G/	.	16b-/LL	.	16bb-\LL	.	.	.	.
.	.	.	.	32a/L	.	32aa\L	.	.	.	.
.	.	.	.	32g/JJJ)	.	32gg\JJJ)	.	.	.	.
!	!	!	!	!	!	!LO:LB:g=original	!	!	!	!
=39	=39	=39	=39	=39	=39	=39	=39	=39	=39	=39
*	*	*^	*	*	*	*	*	*	*	*
8A\	.	4A/	4ryy	.	(64f/LLLL	.	(64ff\LLLL	4.ryy	4.ryy	4.ryy	4.ryy
.	.	.	.	.	64g/JJ	.	64gg\JJ	.	.	.	.
.	.	.	.	.	16.a/JJ)	.	16.aa\JJ)	.	.	.	.
8r	.	.	.	.	(16f/LL	.	(16ff\LL	.	.	.	.
.	.	.	.	.	16d/)	.	16dd\	.	.	.	.
!	!	!LO:N:vis=8	!LO:N:vis=8	!	!	!	!	!	!	!	!
8AA/	.	16f/LL	16d\LL	.	(16e/	.	16ee\	.	.	.	.
!	!	!LO:N:vis=8	!LO:N:vis=8	!	!	!	!	!	!	!	!
.	.	16e/JJ	16c#X\JJ	.	16c#X/JJ)	.	16cc#X\JJ)	.	.	.	.
*	*	*v	*v	*	*	*	*	*	*	*	*
!LO:LB:g=original	!	!	!	!	!LO:LB:g=original	!	!	!	!	!
=40	=40	=40	=40	=40	=40	=40	=40	=40	=40	=40
*	*	*tremolo	*	*	*	*	*	*	*	*
!	!LO:DY:a	!	!LO:DY:a	!	!LO:DY:a:t=f&colon;	!	!	!	!	!
16D\LL	f	16d\L	f	16d/LL	f	16dd\LL	4.ryy	4.ryy	4.ryy	4.ryy
16D\	.	16d\	.	16a/	.	16aa\	.	.	.	.
16D\	.	16d\	.	16bn/	.	16bbn\	.	.	.	.
16D\	.	16d\	.	16cc#X/	.	16ccc#X\	.	.	.	.
16F#X\	.	16d\	.	16dd/	.	16ddd\	.	.	.	.
16F#\JJ	.	16d\J	.	16ccn/JJ	.	16cccn\JJ	.	.	.	.
=41	=41	=41	=41	=41	=41	=41	=41	=41	=41	=41
*tremolo	*	*	*	*	*	*	*	*	*	*
!	!	!LO:N:vis=4.	!	!	!	!	!	!	!	!
16G\L	.	16d\L	.	16b-X/LL	.	16bb-X\LL	4.ryy	4.ryy	4.ryy	4.ryy
16G\	.	16d\	.	16b-/	.	16bb-\	.	.	.	.
16G\	.	16d\	.	16a/	.	16aa\	.	.	.	.
16G\J	.	16d\J	.	16g/	.	16gg\	.	.	.	.
*Xtremolo	*	*Xtremolo	*	*	*	*	*	*	*	*
16A\LL	.	16G/LL	.	16f#X/	.	16ff#X\	.	.	.	.
16A\JJ	.	16G/JJ	.	16a/JJ	.	16aa\JJ	.	.	.	.
=42	=42	=42	=42	=42	=42	=42	=42	=42	=42	=42
*	*	*^	*	*	*	*	*	*	*	*
*tremolo	*	*	*	*	*	*	*	*	*	*	*
!	!	!LO:TX:t=P:problem=mixed beam	!	!	!	!	!	!	!	!	!
16B-\L	.	16ryy	16A/LL	.	16g/LL	.	16gg\LL	4.ryy	4.ryy	4.ryy	4.ryy
16B-\	.	16ryy	16A/	.	16g/	.	16gg\	.	.	.	.
16B-\	.	16f/LL	16d\	.	16a/	.	16aa\	.	.	.	.
16B-\J	.	16f/	16d\	.	16b-/JJ	.	16bb-\JJ	.	.	.	.
*Xtremolo	*	*	*	*	*	*	*	*	*	*	*
.	.	.	.	.	8qqcc/	.	8qqccc/	.	.	.	.
16G\LL	.	16e/	16c#X\	.	16b-/LL	.	16bb-\LL	.	.	.	.
16G\JJ	.	16e/JJ	16c#\JJ	.	32a/L	.	32aa\L	.	.	.	.
.	.	.	.	.	32g/JJJ	.	32gg\JJJ	.	.	.	.
*	*	*v	*v	*	*	*	*	*	*	*	*
=43	=43	=43	=43	=43	=43	=43	=43	=43	=43	=43
*tremolo	*	*	*	*	*	*	*	*	*	*
16A\L	.	8d\	.	(64f/LLLL	.	(64ff\LLLL	4.ryy	4.ryy	4.ryy	4.ryy
.	.	.	.	64g/JJ	.	64gg\JJ	.	.	.	.
.	.	.	.	16.a/JJ)	.	16.aa\JJ)	.	.	.	.
16A\	.	.	.	.	.	.	.	.	.	.
16A\	.	8r	.	16f/LL	.	(16ff\LL	.	.	.	.
16A\J	.	.	.	16d/	.	16dd\	.	.	.	.
*Xtremolo	*	*	*	*	*	*	*	*	*	*
16AA/LL	.	8A/	.	16e/	.	16ee\	.	.	.	.
16AA/JJ	.	.	.	16c#X/JJ	.	16cc#X\JJ)	.	.	.	.
=44	=44	=44	=44	=44	=44	=44	=44	=44	=44	=44
!	!	!	!	!LO:TX:t=P:problem=mixed beam	!LO:DY:a	!LO:SIC:o=:v:takty 44-45 repetycja	!	!	!	!
8D\	.	8d\	.	16d/LL	p	16dd'\LL	4.ryy	4.ryy	4.ryy	4.ryy
.	.	.	.	16ff'\	.	16aa'\	.	.	.	.
8r	.	8r	.	16ff'\	.	16aa'\	.	.	.	.
.	.	.	.	16ff'\JJ	.	16aa'\JJ	.	.	.	.
!	!	!	!	!	!LO:DY:a	!	!	!	!	!
.	.	.	.	(>8qqff'/	f	(>8qqaa/	.	.	.	.
8A\	.	8A/	.	16ee\LL	.	16gg\LL	.	.	.	.
.	.	.	.	32dd\L	.	32ff\L	.	.	.	.
.	.	.	.	32cc#X\JJJ)	.	32ee\JJJ)	.	.	.	.
=45	=45	=45	=45	=45	=45	=45	=45	=45	=45	=45
!	!	!	!	!	!LO:DY:a	!	!	!	!	!
8d\	.	8D/	.	16dd\LL	p	16ff'\LL	4.ryy	4.ryy	4.ryy	4.ryy
.	.	.	.	(16a\	.	16ff'\	.	.	.	.
8r	.	8r	.	16a\	.	16ff'\	.	.	.	.
.	.	.	.	16a\JJ)	.	16ff'\JJ	.	.	.	.
!	!	!	!	!	!LO:DY:a	!	!	!	!	!
.	.	.	.	(8qqa/	f	8qqff/	.	.	.	.
8A\	.	8A/	.	16g/LL	.	16ee\LL	.	.	.	.
.	.	.	.	32f/L	.	(32dd\L	.	.	.	.
.	.	.	.	32e/JJJ)	.	32cc#X\JJJ)	.	.	.	.
=46	=46	=46	=46	=46	=46	=46	=46	=46	=46	=46
!	!	!	!	!LO:TX:t=P:problem=mixed beam	!LO:DY:a	!	!	!	!	!
8D\	.	8d\	.	16d/LL	p	16dd'\LLyy	4.ryy	4.ryy	4.ryy	4.ryy
.	.	.	.	16ff'\	.	16aa'\yy	.	.	.	.
8r	.	8r	.	16ff'\	.	16aa'\yy	.	.	.	.
.	.	.	.	16ff'\JJ	.	16aa'\JJyy	.	.	.	.
!	!	!	!	!	!LO:DY:a	!	!	!	!	!
.	.	.	.	(>8qqff/	f	(>8qqaa/yy	.	.	.	.
8A\	.	8A/	.	16ee\LL	.	16gg\LLyy	.	.	.	.
.	.	.	.	32dd\L	.	32ff\Lyy	.	.	.	.
.	.	.	.	32cc#X\JJJ)	.	32ee\JJJ)yy	.	.	.	.
!	!	!LO:LB:g=original	!	!	!	!	!	!	!	!
=47	=47	=47	=47	=47	=47	=47	=47	=47	=47	=47
*	*	*^	*	*	*	*	*	*	*	*
!	!	!	!	!LO:DY:a	!	!LO:DY:a	!	!	!	!	!
8d\	.	16ryy	16d\KL	p	16dd'\LL	p	16ff'\LLyy	4.ryy	4.ryy	4.ryy	4.ryy
!	!	!LO:SIC:o=:v:rytm I głosu=3x8	!	!	!	!	!	!	!	!	!
.	.	8f/L	8d\	.	16a'\	.	16ff'\yy	.	.	.	.
8r	.	.	.	.	16a'\	.	16ff'\yy	.	.	.	.
.	.	8f/	8d\	.	16a'\JJ	.	16ff'\JJyy	.	.	.	.
!	!	!	!	!	!	!LO:DY:a	!	!	!	!	!
.	.	.	.	.	8qqa/	f	(>8qqff/yy	.	.	.	.
8A\	.	.	.	.	16g/LL	.	16ee\LLyy	.	.	.	.
!	!	!LO:N:vis=8	!	!	!	!	!	!	!	!	!
.	.	16f/Jk	16d\Jk	.	32f/L	.	32dd\Lyy	.	.	.	.
.	.	.	.	.	32e/JJJ	.	32cc#X\JJJ)yy	.	.	.	.
*	*	*v	*v	*	*	*	*	*	*	*	*
=48	=48	=48	=48	=48	=48	=48	=48	=48	=48	=48
*	*	*^	*	*	*	*	*	*	*	*
!	!	!LO:SIC:o=:v:takt 48 repetycja	!LO:N:vis=8	!	!	!LO:DY:a	!	!	!	!	!
8D\L	.	16ryy	16r	.	16d/KL	p	16dd\KL	4.ryy	4.ryy	4.ryy	4.ryy
.	.	8f/L	8d\L	.	8dd\	.	8ff\	.	.	.	.
8D\	.	.	.	.	.	.	.	.	.	.	.
.	.	8f/	8d\	.	8dd\	.	8ff\	.	.	.	.
8D\J	.	.	.	.	.	.	.	.	.	.	.
.	.	16f/Jk	16d\Jk	.	16dd\Jk	.	16ff\Jk	.	.	.	.
*	*	*v	*v	*	*	*	*	*	*	*	*
=49	=49	=49	=49	=49	=49	=49	=49	=49	=49	=49
*	*	*^	*	*	*	*	*	*	*	*
!	!	!	!LO:N:vis=8	!	!	!	!	!	!	!	!
8Cn/L	.	16ryy	16ryy	.	16r	.	16r	4.ryy	4.ryy	4.ryy	4.ryy
.	.	8f/Lyy	8d\Lyy	.	8dd\L	.	8ff\L	.	.	.	.
8C/	.	.	.	.	.	.	.	.	.	.	.
.	.	8f/yy	8d\yy	.	8dd\	.	8ff\	.	.	.	.
8C/J	.	.	.	.	.	.	.	.	.	.	.
.	.	16f/Jkyy	16d\Jkyy	.	16dd\Jk	.	16ff\Jk	.	.	.	.
*	*	*v	*v	*	*	*	*	*	*	*	*
!	!	!	!	!	!LO:LB:g=original	!	!	!	!	!
=50	=50	=50	=50	=50	=50	=50	=50	=50	=50	=50
8BB-/L	.	16r	.	8r	.	8r	4.ryy	4.ryy	4.ryy	4.ryy
*	*	*^	*	*	*	*	*	*	*	*
!	!	!	!	!LO:DY:a	!	!	!	!	!	!	!
.	.	8g#X/L	8d\L	f	.	.	.	.	.	.	.
!	!	!	!	!	!	!LO:DY:a	!	!	!	!	!
8BB-/	.	.	.	.	16dd\KL	f	16gg#X\KL	.	.	.	.
.	.	8g#/	8d\	.	8dd\	.	8gg#\	.	.	.	.
8BB-/J	.	.	.	.	.	.	.	.	.	.	.
.	.	16g#/Jk	16d\Jk	.	16dd\Jk	.	16gg#\Jk	.	.	.	.
*	*	*v	*v	*	*	*	*	*	*	*	*
!	!	!	!	!	!	!	!LO:LB:g=original	!	!	!
=51	=51	=51	=51	=51	=51	=51	=51	=51	=51	=51
!	!	!LO:SIC:o=:v:brak tego taktu w źródle.wstawiłem, żeby pion się zgadzał	!	!	!	!LO:SIC:o=:v:brak tego taktu w źródle.\nwstawiłem, żeby pion się zgadzał	!	!	!	!
8BB-/L	.	4.ryy	.	8r	.	4.ryy	4.ryy	4.ryy	4.ryy	4.ryy
8BB-/	.	.	.	16dd\KL	.	.	.	.	.	.
.	.	.	.	8dd\	.	.	.	.	.	.
8BB-/J	.	.	.	.	.	.	.	.	.	.
.	.	.	.	16dd\Jk	.	.	.	.	.	.
=52	=52	=52	=52	=52	=52	=52	=52	=52	=52	=52
*	*	*^	*	*	*	*	*	*	*	*
!	!	!	!	!LO:DY:a	!	!	!LO:N:vis=4	!	!	!	!
8AA/	.	8a/	8c#X\	p	8cc#X\	.	8aa\	4.ryy	4.ryy	4.ryy	4.ryy
8r	.	8r	8r	.	8r	.	8r	.	.	.	.
!	!	!LO:N:vis=16	!	!	!	!LO:DY:a	!	!	!	!	!
8A\	.	32f/KLL	32d\KLL	.	32dd\KLL	p	32ff\KLL	.	.	.	.
.	.	16e/	16c#X\	.	16cc#\	.	16ee\	.	.	.	.
!	!	!LO:N:vis=16	!	!	!	!	!	!	!	!	!
.	.	32f/JJk	32d\JJk	.	32dd\JJk	.	32ff\JJk	.	.	.	.
=53	=53	=53	=53	=53	=53	=53	=53	=53	=53	=53	=53
8A\	.	8e/	8c\	.	8cc\	.	8ee\	4.ryy	4.ryy	4.ryy	4.ryy
8r	.	8r	4ryy	.	8r	.	8r	.	.	.	.
8AA/	.	8A/	.	.	32d/KLL	.	32f/KLL	.	.	.	.
.	.	.	.	.	16c#X/	.	16e/	.	.	.	.
.	.	.	.	.	32d/JJk	.	32f/JJk	.	.	.	.
*	*	*v	*v	*	*	*	*	*	*	*	*
=54	=54	=54	=54	=54	=54	=54	=54	=54	=54	=54
!	!LO:DY:a	!	!	!	!	!	!	!	!	!
8AA/L	p	8A/L	.	8c/L	.	8e/L	4.ryy	4.ryy	4.ryy	4.ryy
!	!	!	!	!	!	!LO:SIC:o=:v:niewyraźny zapis	!	!	!	!
8AA/	.	8A/	.	8A/	.	8c/	.	.	.	.
8AA/J	.	8A/J	.	8A/J	.	8A/J	.	.	.	.
!LO:LB:g=original	!	!	!	!	!	!	!	!	!	!
=55	=55	=55	=55	=55	=55	=55	=55	=55	=55	=55
!LO:SIC:o=:v:podwójna kreska taktowa z obustronną repetycją	!	!LO:SIC:o=:v:podwójna kreska taktowa z obustronną repetycją	!	!LO:SIC:o=:v:podwójna kreska taktowa z obustronną repetycją	!	!LO:SIC:o=:v:podwójna kreska taktowa z obustronną repetycją	!	!	!	!
4.AA/;<	.	4A/	.	4.A;/	.	4.A;/	4.ryy	4.ryy	4.ryy	4.ryy
.	.	8r;	.	.	.	.	.	.	.	.
!	!	!LO:TX:t=Segue Subito	!	!	!	!	!	!	!	!
==:||:;	==:||:;	==:||:;	==:||:;	==:||:;	==:||:;	==:||:;	==	==	==	==
*-	*-	*-	*-	*-	*-	*-	*-	*-	*-	*-
!!!system-decoration: [(s1,s2,s3,s4)][(s5,s6,s7,s8)]
!!!RDF**kern: > = above
!!!RDF**kern: < = below
!!!RDF**dynam: p = p&colon;
!!!RDF**dynam: f = f&colon;
!!!RDF**kern: | = vertical stroke
!!!EED: Leszek Kubiak
!!!EEV: 2020-09-18
!!!ENC: Andrzej Gręziak
!!!END: 2020-05-16
!!!YEC: Copyright 2022 Narodowy Instytut Fryderyka Chopina (https://polishscores.org)
!!!YEM: License CC-BY-4.0 (https://creativecommons.org/licenses/by/4.0)
